svgs/sharp-duotone-solid/hourglass-half.svg

<svg xmlns="http://www.w3.org/2000/svg" viewBox="0 0 384 512"><!--! Font Awesome Pro 7.1.0 by @fontawesome - https://fontawesome.com License - https://fontawesome.com/license (Commercial License) Copyright 2025 Fonticons, Inc. --><path opacity=".4" fill="currentColor" d="M32 64l64 0 0 50.7 13.3 13.3 165.5 0 13.3-13.3 0-50.7 64 0 0 77.3-9.4 9.4-105.4 105.4 114.7 114.7 0 77.3-320 0 0-77.3 9.4-9.4 105.4-105.4-105.4-105.4-9.4-9.4 0-77.3zm77.3 320l165.5 0-82.7-82.7-82.7 82.7z"/><path fill="currentColor" d="M32 512l-32 0 0-64 384 0 0 64-352 0zM32 64L0 64 0 0 384 0 384 64 32 64z"/></svg>

<svg xmlns="http://www.w3.org/2000/svg" viewBox="0 0 384 512"><!--! Font Awesome Pro 6.7.2 by @fontawesome - https://fontawesome.com License - https://fontawesome.com/license (Commercial License) Copyright 2024 Fonticons, Inc. --><defs><style>.fa-secondary{opacity:.4}</style></defs><path class="fa-secondary" d="M32 64l64 0 0 50.7L109.3 128l165.5 0L288 114.7 288 64l64 0 0 64 0 13.3-9.4 9.4L237.3 256 342.6 361.4l9.4 9.4 0 13.3 0 64-48 0-16 0L96 448l-32 0-32 0 0-64 0-13.3 9.4-9.4L146.7 256 41.4 150.6 32 141.3 32 128l0-64zm77.3 320l165.5 0L192 301.3 109.3 384z"/><path class="fa-primary" d="M32 512L0 512l0-64 32 0 320 0 32 0 0 64-32 0L32 512zM32 64L0 64 0 0 32 0 352 0l32 0 0 64-32 0L32 64z"/></svg>
